src/ideal-issuers/asn-bank/ideal-issuer-asn-bank-mollie-32x24.svg

<svg fill="none" height="24" viewBox="0 0 32 24" width="32" xmlns="http://www.w3.org/2000/svg"><path d="m28 0h-24c-2.20914 0-4 1.79086-4 4v16c0 2.2091 1.79086 4 4 4h24c2.2091 0 4-1.7909 4-4v-16c0-2.20914-1.7909-4-4-4z" fill="#d10600"/><path clip-rule="evenodd" d="m0 3.3741c0-1.98261 1.57741-3.3741 3.40799-3.3741 2.41053 0 3.26175 2.25391 3.26175 5.03412 0 .02316-1.67666 1.42415-1.67666 3.85976 0 1.88782.82544 2.49012 1.6543 2.83072l.04827.1886s-4.53031.9601-4.53031-3.50505c0-1.60931.86659-2.39615.86659-3.82106 0-.4577-.39542-1.09872-1.25631-1.09872-.819322 0-1.270559.61066-1.270559 1.08913l-.173005.00303c-.199632-.35347-.332056-.77022-.332056-1.20643zm10.6046 6.47611s-.0501-.85404-.5664-.85404c-.46253 0-.71759.42216-.71759.42216s.53432.42996.53432 1.09817c0 .6904-1.3901 1.3685-1.98664 1.4835-.13637-.3347-.21612-.7069-.21612-1.0717 0-1.51552 1.00659-2.9283 2.63433-2.9283 1.2048 0 .5193 1.89321.5193 1.89321zm-1.99798-4.32797c0 .28699-.22034.52321-.49967.52321-.27673 0-.50033-.23622-.50033-.52321 0-.28881.2236-.52224.50033-.52224.27933 0 .49967.23343.49967.52224zm1.43878-1.83282s.4763.52171.4763 1.35265c0 .8295-.57245 1.95793-.57245 1.95793l-.27622-.06126s.49937-1.06948-.66237-2.03241c-1.07012-.88597-1.18863-.6091-1.33962-1.61688-.07943-.54546.10119-1.28901.36897-1.78715l.17675.06612c-.00515.92954.32031 1.59554.32031 1.59554s.54114-.04049.80391.06193c0 .00417.29126-.68915.22986-1.65378l.17933-.07211c.58593 1.09619.29523 2.18942.29523 2.18942z" fill="#fff" fill-rule="evenodd" transform="translate(10 6)"/></svg>

<svg width="32" height="24" viewBox="0 0 32 24" fill="none" xmlns="http://www.w3.org/2000/svg">
<rect width="32" height="24" rx="4" fill="#D10600"/>
<path fill-rule="evenodd" clip-rule="evenodd" d="M0 3.3741C0 1.39149 1.57741 0 3.40799 0C5.81852 0 6.66974 2.25391 6.66974 5.03412C6.66974 5.05728 4.99308 6.45827 4.99308 8.89388C4.99308 10.7817 5.81852 11.384 6.64738 11.7246L6.69565 11.9132C6.69565 11.9132 2.16534 12.8733 2.16534 8.40815C2.16534 6.79884 3.03193 6.012 3.03193 4.58709C3.03193 4.12939 2.63651 3.48837 1.77562 3.48837C0.956298 3.48837 0.505061 4.09903 0.505061 4.5775L0.332056 4.58053C0.132424 4.22706 0 3.81031 0 3.3741ZM10.6046 9.85021C10.6046 9.85021 10.5545 8.99617 10.0382 8.99617C9.57567 8.99617 9.32061 9.41833 9.32061 9.41833C9.32061 9.41833 9.85493 9.84829 9.85493 10.5165C9.85493 11.2069 8.46483 11.885 7.86829 12C7.73192 11.6653 7.65217 11.2931 7.65217 10.9283C7.65217 9.41278 8.65876 8 10.2865 8C11.4913 8 10.8058 9.89321 10.8058 9.89321L10.6046 9.85021ZM8.60662 5.52224C8.60662 5.80923 8.38628 6.04545 8.10695 6.04545C7.83022 6.04545 7.60662 5.80923 7.60662 5.52224C7.60662 5.23343 7.83022 5 8.10695 5C8.38628 5 8.60662 5.23343 8.60662 5.52224ZM10.0454 3.68942C10.0454 3.68942 10.5217 4.21113 10.5217 5.04207C10.5217 5.87157 9.94925 7 9.94925 7L9.67303 6.93874C9.67303 6.93874 10.1724 5.86926 9.01066 4.90633C7.94054 4.02036 7.82203 4.29723 7.67104 3.28945C7.59161 2.74399 7.77223 2.00044 8.04001 1.5023L8.21676 1.56842C8.21161 2.49796 8.53707 3.16396 8.53707 3.16396C8.53707 3.16396 9.07821 3.12347 9.34098 3.22589C9.34098 3.23006 9.63224 2.53674 9.57084 1.57211L9.75017 1.5C10.3361 2.59619 10.0454 3.68942 10.0454 3.68942Z" transform="translate(10 6)" fill="white"/>
</svg>
